X:1
T:Pure Within
T:William Howard Doane
T:Pure Within
T:Public Domain
T:Public Domain
C:William Howard Doane
Z:Public Domain
%%score ( 1 2 ) ( 3 4 )
L:1/8
M:6/8
K:F
V:1 treble 
V:2 treble 
V:3 bass 
V:4 bass 
V:1
 ([Ac][^G=B])[Ac] (AG)[FA] | [DF]2 D [DF]2 [DG] | [FA]2 [Ac] ([FA][EG])F | ([E-G]3 [Ec]3) | %4
w: 1.~Lord, * on Thee * my|re- lies, O, hear|when I call; * Up|Thee *|
w: 2.~Rock * on which * my|would rest, From storm|tem- pest wild, * Gent-|pil- *|
w: 3.~Let * Thy Spir- * it|my Guide, To end-|joys a- bove; * Grant~I|nev- *|
w: 4.~Soon * my bark * will|its flight, To yon-|por- tals fair, * Soon|reach *|
 ([Ac][^G=B])[Ac] (AG)[FA] | [DF]2 D [DF]2 [Fd] | [Fc]2 [GB] [FA]2 [CG] | [CF]3- [CF]2 z || %8
w: I * lift mine * eyes,|Life, my Help, my|||
w: lowed * on Thy * breast,|tect Thy wear- y|Source of com- fort,|Spring *|
w: er * turn a- * side,|once for- get Thy|||
w: the * ha- ven * bright,|drop its an- chor|||
"^Refrain" [Fd]2 [Fe] (fe)[Fd] | [Fc]2 [FA] [Fc]3 | [Ec]2 [EG] [Ec]2 [Ed] | [Fc]2 [FA] [Fc]3 | %12
w: ||||
w: of grace, Cleanse * my|from ev- ery|sin, Now re- veal|Thy smil- ing|
w: ||||
w: ||||
 [Fd]2 [Fe] (fe)[Fd] | [Fc]2 [FA] [Fc]2 [Fd] | [Fc]2 [GB] [FA]2 [CG] | [CF]3- [CF]2 z |] %16
w: ||||
w: face, And make * me|with- in. * *|||
w: ||||
w: ||||
V:2
 x3 F2 x | x2 D x3 | x5 F | x6 | x3 F2 x | x2 D x3 | x6 | x6 || x3 F2 x | x6 | x6 | x6 | x3 F2 x | %13
w: strength|me|to||My|All.||||||||
w: soul|and|ly||Pro-|child.|||heart||||pure|
w: be|less|may||Or|love.||||||||
w: speed|der|’twill||And|there.||||||||
 x6 | x6 | x6 |] %16
w: |||
w: |||
w: |||
w: |||
V:3
 F,2 F, F,2 F, | [B,,B,]2 [B,,F,] [B,,B,]2 [B,,B,] | [F,C]2 [F,C] [F,C]2 [D,A,] | %3
 ([C,-C]3 [C,G,]3) | F,2 F, F,2 F, | [B,,B,]2 [B,,F,] [B,,B,]2 [B,,B,] | %6
 [C,A,]2 [C,C] [C,C]2 [C,B,] | [F,A,]3- [F,A,]2 z || B,2 [B,C] (DC)B, | [F,A,]2 [F,C] [F,A,]3 | %10
 [C,G,]2 [C,C] [C,G,]2 [C,B,] | [F,A,]2 [F,C] [F,A,]3 | [B,,B,]2 [B,,C] (DC)[B,,B,] | %13
 [F,A,]2 [F,C] [F,A,]2 [B,,B,] | [C,A,]2 [C,B,] (CA,)[E,B,] | [F,A,]3- [F,A,]2 z |] %16
V:4
 F,2 F, F,2 F, | x6 | x6 | x6 | F,2 F, F,2 F, | x6 | x6 | x6 || B,2 B,2 B, x | x6 | x6 | x6 | %12
 x3 B,,2 x | x6 | x3 C,2 x | x6 |] %16

